assets/images/ico_download.svg

<svg width="15" height="12" viewBox="0 0 15 12" fill="none" xmlns="http://www.w3.org/2000/svg">
<path d="M7.25439 1.21503C7.25439 2.0453 7.25439 2.87855 7.25439 3.70881C7.25439 5.03484 7.25439 6.36087 7.25439 7.68989C7.25439 7.99751 7.25439 8.30214 7.25439 8.60975C7.25439 8.89945 7.72104 8.89945 7.72104 8.60975C7.72104 7.77949 7.72104 6.94624 7.72104 6.11598C7.72104 4.78994 7.72104 3.46391 7.72104 2.13489C7.72104 1.82728 7.72104 1.52265 7.72104 1.21503C7.72104 0.928323 7.25439 0.928323 7.25439 1.21503Z" fill="white" stroke="white" stroke-width="0.5"/>
<path d="M4.64709 6.49211C5.42795 7.17006 6.20882 7.851 6.99279 8.52895C7.10479 8.62452 7.21367 8.72009 7.32567 8.81566C7.42211 8.89928 7.55899 8.89928 7.65543 8.81566C8.4363 8.13771 9.21716 7.45677 10.0011 6.77882C10.1131 6.68325 10.222 6.58768 10.334 6.49211C10.558 6.29798 10.2251 5.98141 10.0042 6.17553C9.22338 6.85348 8.44252 7.53442 7.65855 8.21237C7.54655 8.30794 7.43766 8.40351 7.32567 8.49908C7.43455 8.49908 7.54655 8.49908 7.65543 8.49908C6.87457 7.82113 6.09371 7.1402 5.30974 6.46224C5.19774 6.36667 5.08885 6.2711 4.97686 6.17553C4.75598 5.98141 4.4231 6.29798 4.64709 6.49211Z" fill="white" stroke="white" stroke-width="0.5"/>
<path d="M1.00415 7.86178C1.00415 8.48598 1.00415 9.11316 1.00415 9.73735C1.00415 9.96732 0.994815 10.1973 1.00415 10.4273C1.01659 10.7677 1.29036 10.9887 1.63568 10.9947C2.63742 11.0066 3.63916 10.9947 4.64091 10.9947C6.33951 10.9947 8.03501 10.9947 9.73361 10.9947C10.8816 10.9947 12.0295 10.9947 13.1744 10.9947C13.2646 10.9947 13.3579 11.0007 13.4481 10.9857C13.7344 10.938 13.921 10.699 13.9335 10.4273C13.9366 10.3496 13.9335 10.2749 13.9335 10.1973C13.9335 9.48051 13.9335 8.76373 13.9335 8.04695C13.9335 7.98722 13.9335 7.9245 13.9335 7.86477C13.9335 7.57507 13.4668 7.57507 13.4668 7.86477C13.4668 8.46209 13.4668 9.0594 13.4668 9.65671C13.4668 9.9046 13.4948 10.1674 13.4668 10.4153C13.4544 10.5407 13.3704 10.5467 13.2646 10.5467C12.2535 10.5467 11.2393 10.5467 10.2283 10.5467C8.57321 10.5467 6.91816 10.5467 5.26311 10.5467C4.11515 10.5467 2.96719 10.5467 1.82234 10.5467C1.75079 10.5467 1.6699 10.5557 1.59835 10.5467C1.41791 10.5228 1.47391 10.266 1.47391 10.1405C1.47391 9.43571 1.47391 8.73386 1.47391 8.02903C1.47391 7.97229 1.47391 7.91853 1.47391 7.86178C1.4708 7.57507 1.00415 7.57209 1.00415 7.86178Z" fill="white" stroke="white" stroke-width="0.5"/>
</svg>

<svg width="15" height="12" fill="none" xmlns="http://www.w3.org/2000/svg"><path d="M7.254 1.215v7.394c0 .29.467.29.467 0V1.215c0-.287-.467-.287-.467 0z" fill="#fff" stroke="#fff" stroke-width=".5"/><path d="M4.647 6.492c.78.678 1.562 1.359 2.346 2.037.112.096.22.191.333.287a.248.248 0 00.33 0c.78-.678 1.561-1.36 2.345-2.037l.333-.287c.224-.194-.109-.51-.33-.316-.78.677-1.561 1.358-2.345 2.036-.112.096-.221.192-.333.287h.33C6.874 7.821 6.093 7.14 5.31 6.462l-.333-.286c-.221-.195-.554.122-.33.316z" fill="#fff" stroke="#fff" stroke-width=".5"/><path d="M1.004 7.862v1.875c0 .23-.01.46 0 .69.013.34.286.562.632.568 1.001.012 2.003 0 3.005 0h8.533c.09 0 .184.006.274-.01a.582.582 0 00.486-.558c.003-.077 0-.152 0-.23V7.865c0-.29-.467-.29-.467 0v1.792c0 .248.028.51 0 .758-.013.126-.097.132-.202.132H1.823c-.072 0-.153.009-.225 0-.18-.024-.124-.281-.124-.407V7.863c-.003-.287-.47-.29-.47 0z" fill="#fff" stroke="#fff" stroke-width=".5"/></svg>
